X:284
T:Steirer (82.)
C:traditionell
A:Salzkammergut
S:MIDI erhalten von Christian Amon. Nach einer kopie im besitz von Johann Stoeckl eines manuscriptes. Stoeckl(zitiert von Amon): "diese sammlung wurde 1935 im hause der familie Hohenlohe-Schillingfuerst gefunden. Sie wurde von einem der beiden brueder Steinegger 1866 verfasst. Die originale sind im Ausseer Kammerhofmuseum".
M:3/4
L:1/8
K:G
V:1
f3 a d'2 | f3 a d'2 | g4 b2 | g4 b2 |\
d3 f a2 | d3 f a2 | g4 b2 | g4 b2 |*
V:2
d'3 c' a2 | d'3 c' a2 | b3 d' g2 | b4 g2 |\
a3 d f2 | a3 d f2 | b4 g2 | b4 g2|*
